icons/switch-cross.svg

<svg xmlns="http://www.w3.org/2000/svg" viewBox="0 0 24 24" fill="currentColor">
  <path d="M8 7.75c-2.38579 0-4.25 1.86421-4.25 4.25 0 2.2956 1.87393 4.25 4.25 4.25h8c2.3858 0 4.25-1.8642 4.25-4.25 0-2.38579-1.8642-4.25-4.25-4.25H8ZM2.25 12c0-3.21421 2.53579-5.75 5.75-5.75h8c3.2142 0 5.75 2.53579 5.75 5.75 0 3.2142-2.5358 5.75-5.75 5.75H8c-3.22393 0-5.75-2.6456-5.75-5.75Zm10.7197-2.03033c.2929-.29289.7677-.29289 1.0606 0l.9197.91973.9197-.91973c.2929-.29289.7678-.29289 1.0607 0 .2928.29293.2928.76773 0 1.06063l-.9197.9197.9197.9197c.2928.2929.2928.7678 0 1.0607-.2929.2928-.7678.2928-1.0607 0l-.9197-.9197-.9197.9197c-.2929.2928-.7677.2928-1.0606 0-.2929-.2929-.2929-.7678 0-1.0607l.9197-.9197-.9197-.9197c-.2929-.2929-.2929-.7677 0-1.06063Z"/>
</svg>

<svg width="24" height="24" viewBox="0 0 24 24" fill="none" xmlns="http://www.w3.org/2000/svg">
<path fill-rule="evenodd" clip-rule="evenodd" d="M8 7.75C5.61421 7.75 3.75 9.61421 3.75 12C3.75 14.2956 5.62393 16.25 8 16.25H16C18.3858 16.25 20.25 14.3858 20.25 12C20.25 9.61421 18.3858 7.75 16 7.75H8ZM2.25 12C2.25 8.78579 4.78579 6.25 8 6.25H16C19.2142 6.25 21.75 8.78579 21.75 12C21.75 15.2142 19.2142 17.75 16 17.75H8C4.77607 17.75 2.25 15.1044 2.25 12ZM12.9697 9.96967C13.2626 9.67678 13.7374 9.67678 14.0303 9.96967L14.95 10.8894L15.8697 9.96967C16.1626 9.67678 16.6375 9.67678 16.9304 9.96967C17.2232 10.2626 17.2232 10.7374 16.9304 11.0303L16.0107 11.95L16.9304 12.8697C17.2232 13.1626 17.2232 13.6375 16.9304 13.9304C16.6375 14.2232 16.1626 14.2232 15.8697 13.9304L14.95 13.0107L14.0303 13.9304C13.7374 14.2232 13.2626 14.2232 12.9697 13.9304C12.6768 13.6375 12.6768 13.1626 12.9697 12.8697L13.8894 11.95L12.9697 11.0303C12.6768 10.7374 12.6768 10.2626 12.9697 9.96967Z" fill="black"/>
</svg>
